icons/arcbrowser-light.svg

<svg width="256" height="256" viewBox="0 0 256 256" fill="none" xmlns="http://www.w3.org/2000/svg">
<rect width="256" height="256" rx="60" fill="#F4F2ED"/>
<path d="M168.784 118.005L141.628 60.875C138.219 53.7196 131.007 49.156 123.091 49.156C119.201 49.1509 115.39 50.2562 112.107 52.3421C108.823 54.428 106.203 57.4078 104.555 60.9314L76.863 119.188C84.6382 129.471 98.3855 137.922 112.048 140.824L121.007 122.005C121.197 121.606 121.496 121.27 121.87 121.034C122.244 120.798 122.677 120.673 123.119 120.673C123.561 120.673 123.995 120.798 124.368 121.034C124.742 121.27 125.042 121.606 125.232 122.005L133.993 140.429M168.784 118.005C168.784 118.005 168.784 118.033 168.756 118.033C168.756 118.033 168.756 118.005 168.784 118.005ZM168.784 118.005C175.151 110.202 179.771 101.018 181.743 91.1585C183.968 80.0311 194.786 72.8476 205.913 75.0449C208.559 75.5734 211.074 76.6178 213.315 78.1187C215.557 79.6195 217.481 81.5473 218.977 83.7918C220.474 86.0364 221.513 88.5538 222.037 91.2002C222.56 93.8467 222.556 96.5702 222.027 99.2154C217.463 122.005 204.73 142.373 187.49 157.332L197.349 178.065C202.814 189.559 197.096 203.616 184.982 207.222L184.616 207.335C182.813 207.842 180.954 208.095 179.151 208.095C171.46 208.095 164.108 203.757 160.586 196.376L151.825 177.953L133.993 140.429M133.993 140.429H134.05M78.6941 121.414C78.5533 121.273 78.4406 121.104 78.2998 120.963L78.0462 120.653C77.9617 120.541 77.8772 120.456 77.7927 120.343L76.863 119.16L76.8349 119.132C74.8911 116.569 73.3135 113.892 72.2149 111.16C67.9611 100.624 55.9885 95.5532 45.4808 99.807C34.9732 104.061 29.9024 116.033 34.128 126.541L34.2689 126.907C39.1424 138.683 47.5655 149.528 58.1295 158.458L48.7768 178.122C44.016 188.15 47.5937 200.433 57.3971 205.644C59.8459 206.95 62.5341 207.746 65.2993 207.984C68.0644 208.222 70.849 207.896 73.4849 207.028C76.1207 206.159 78.5529 204.764 80.6346 202.929C82.7162 201.093 84.404 198.854 85.596 196.348L94.1317 178.403C103.203 181.305 112.555 182.911 121.795 182.911C132.05 182.911 142.163 181.136 151.797 177.896L133.965 140.373C129.965 141.331 125.88 141.838 121.795 141.838H121.401C118.33 141.81 115.175 141.443 112.02 140.767C104.583 139.19 97.1178 135.978 90.6104 131.696C90.4977 131.64 90.4132 131.555 90.3005 131.499C89.1455 130.71 88.0186 129.921 86.92 129.076C84.5818 127.302 82.4127 125.386 80.4689 123.358C80.4407 123.358 80.4407 123.33 80.4126 123.301C79.821 122.682 79.2294 122.062 78.6941 121.414ZM78.6941 121.414C78.7223 121.442 78.7505 121.47 78.7505 121.498L78.6941 121.414Z" stroke="white" stroke-width="16" stroke-linejoin="round"/>
<path fill-rule="evenodd" clip-rule="evenodd" d="M94.1317 178.403L112.02 140.767C98.3573 137.866 84.61 129.414 76.8349 119.132L58.1295 158.458C68.5245 167.276 81.0042 174.206 94.1317 178.403Z" fill="#1A007F"/>
<path fill-rule="evenodd" clip-rule="evenodd" d="M168.784 118.005C159.798 129.02 147.318 137.19 133.965 140.373L151.797 177.896C164.812 173.502 176.982 166.403 187.49 157.303L168.784 118.005Z" fill="#4E000A"/>
<path fill-rule="evenodd" clip-rule="evenodd" d="M58.1295 158.458L48.7768 178.122C44.016 188.122 47.5937 200.433 57.3971 205.644C67.7921 211.166 80.5816 206.856 85.596 196.348L94.1317 178.403C80.9506 174.154 68.7225 167.38 58.1295 158.458Z" fill="#1A007F"/>
<path fill-rule="evenodd" clip-rule="evenodd" d="M205.913 75.073C203.268 74.5434 200.544 74.5401 197.898 75.0633C195.252 75.5866 192.734 76.6261 190.49 78.1224C188.245 79.6188 186.317 81.5428 184.816 83.7844C183.316 86.026 182.271 88.5413 181.743 91.1867C179.771 101.046 175.151 110.23 168.784 118.033L187.461 157.36C204.702 142.401 217.435 122.034 221.999 99.2435C224.224 88.0879 217.012 77.2704 205.913 75.073Z" fill="#FF9396"/>
<path fill-rule="evenodd" clip-rule="evenodd" d="M133.965 140.373C129.965 141.331 125.88 141.838 121.795 141.838C118.612 141.838 115.316 141.471 112.02 140.767C98.3573 137.866 84.61 129.414 76.8349 119.132C74.8911 116.569 73.3135 113.892 72.2149 111.16C67.9611 100.652 55.9885 95.5813 45.4808 99.8069C34.9732 104.061 29.9024 116.033 34.128 126.541C38.9452 138.485 47.4528 149.444 58.1295 158.458C68.7123 167.379 80.9311 174.154 94.1035 178.403C103.146 181.305 112.527 182.911 121.767 182.911C132.021 182.911 142.135 181.136 151.769 177.896L133.965 140.373Z" fill="#002DC8"/>
<path fill-rule="evenodd" clip-rule="evenodd" d="M197.321 178.037L187.461 157.303L168.784 118.005L168.756 118.033C168.756 118.033 168.756 118.005 168.784 118.005L141.628 60.875C139.961 57.37 137.335 54.409 134.054 52.335C130.773 50.2609 126.972 49.1587 123.091 49.156C115.175 49.156 107.964 53.7196 104.555 60.875L76.863 119.132C84.6382 129.414 98.3855 137.866 112.048 140.767L121.007 121.949C121.852 120.174 124.387 120.174 125.232 121.949L133.993 140.373L151.825 177.896L160.586 196.32C162.252 199.832 164.882 202.798 168.169 204.873C171.455 206.947 175.264 208.046 179.151 208.039C180.982 208.039 182.813 207.785 184.616 207.278C196.983 203.87 202.843 189.643 197.321 178.037Z" fill="#FF536A"/>
</svg>

<svg xmlns="http://www.w3.org/2000/svg" width="256" height="256" fill="none"><rect width="256" height="256" fill="#F4F2ED" rx="60"/><path stroke="#fff" stroke-linejoin="round" stroke-width="16" d="m168.784 118.005-27.156-57.13a20.54 20.54 0 0 0-18.537-11.719 20.43 20.43 0 0 0-18.536 11.775l-27.692 58.257c7.775 10.283 21.522 18.734 35.185 21.636l8.959-18.819a2.34 2.34 0 0 1 2.112-1.332 2.34 2.34 0 0 1 2.113 1.332l8.761 18.424m34.791-22.424s0 .028-.028.028c0 0 0-.028.028-.028Zm0 0c6.367-7.803 10.987-16.987 12.959-26.846 2.225-11.128 13.043-18.311 24.17-16.114a20.53 20.53 0 0 1 13.064 8.747 20.54 20.54 0 0 1 3.05 15.423c-4.564 22.79-17.297 43.158-34.537 58.117l9.859 20.733c5.465 11.494-.253 25.551-12.367 29.157l-.366.113a20.3 20.3 0 0 1-5.465.76c-7.691 0-15.043-4.338-18.565-11.719l-8.761-18.423-17.832-37.524m0 0h.057m-55.356-19.015c-.14-.141-.253-.31-.394-.451l-.254-.31c-.084-.112-.169-.197-.253-.31l-.93-1.183-.028-.028c-1.944-2.563-3.521-5.24-4.62-7.972-4.254-10.536-16.227-15.607-26.734-11.353s-15.579 16.226-11.353 26.734l.14.366c4.874 11.776 13.298 22.621 23.862 31.551l-9.353 19.664c-4.761 10.028-1.183 22.311 8.62 27.522a20.53 20.53 0 0 0 16.088 1.384 20.54 20.54 0 0 0 12.111-10.68l8.536-17.945c9.071 2.902 18.423 4.508 27.663 4.508 10.255 0 20.368-1.775 30.002-5.015l-17.832-37.523c-4 .958-8.085 1.465-12.17 1.465h-.394c-3.071-.028-6.226-.395-9.381-1.071-7.437-1.577-14.902-4.789-21.41-9.071-.112-.056-.197-.141-.31-.197a74 74 0 0 1-3.38-2.423 55 55 0 0 1-6.451-5.718c-.028 0-.028-.028-.056-.057-.592-.619-1.184-1.239-1.719-1.887Zm0 0c.028.028.056.056.056.084z"/><path fill="#1A007F" fill-rule="evenodd" d="m94.132 178.403 17.888-37.636c-13.663-2.901-27.41-11.353-35.185-21.635L58.13 158.458c10.395 8.818 22.874 15.748 36.002 19.945" clip-rule="evenodd"/><path fill="#4E000A" fill-rule="evenodd" d="M168.784 118.005c-8.986 11.015-21.466 19.185-34.819 22.368l17.832 37.523c13.015-4.394 25.185-11.493 35.693-20.593z" clip-rule="evenodd"/><path fill="#1A007F" fill-rule="evenodd" d="m58.13 158.458-9.353 19.664c-4.761 10-1.183 22.311 8.62 27.522 10.395 5.522 23.185 1.212 28.199-9.296l8.536-17.945a106.7 106.7 0 0 1-36.003-19.945" clip-rule="evenodd"/><path fill="#FF9396" fill-rule="evenodd" d="M205.913 75.073a20.537 20.537 0 0 0-24.17 16.114c-1.972 9.859-6.592 19.043-12.959 26.846l18.677 39.327c17.241-14.959 29.974-35.326 34.538-58.117 2.225-11.155-4.987-21.973-16.086-24.17" clip-rule="evenodd"/><path fill="#002DC8" fill-rule="evenodd" d="M133.965 140.373c-4 .958-8.085 1.465-12.17 1.465-3.183 0-6.479-.367-9.775-1.071-13.663-2.901-27.41-11.353-35.185-21.635-1.944-2.563-3.521-5.24-4.62-7.972-4.254-10.508-16.227-15.579-26.734-11.353-10.508 4.254-15.579 16.226-11.353 26.734 4.817 11.944 13.325 22.903 24.002 31.917a106.6 106.6 0 0 0 35.973 19.945c9.043 2.902 18.424 4.508 27.664 4.508 10.254 0 20.368-1.775 30.002-5.015z" clip-rule="evenodd"/><path fill="#FF536A" fill-rule="evenodd" d="m197.321 178.037-9.86-20.734-18.677-39.298-.028.028s0-.028.028-.028l-27.156-57.13a20.54 20.54 0 0 0-18.537-11.719 20.54 20.54 0 0 0-18.536 11.719l-27.692 58.257c7.775 10.282 21.522 18.734 35.185 21.635l8.959-18.818c.845-1.775 3.38-1.775 4.225 0l8.761 18.424 17.832 37.523 8.761 18.424a20.51 20.51 0 0 0 18.565 11.719 20.2 20.2 0 0 0 5.465-.761c12.367-3.408 18.227-17.635 12.705-29.241" clip-rule="evenodd"/></svg>
